packages/icons/src/assets/default/volume-off.svg

<svg width="18" height="18" viewBox="0 0 18 18" fill="none" xmlns="http://www.w3.org/2000/svg">
<path fill-rule="evenodd" clip-rule="evenodd" d="M0.714286 6.00821H3.78571L7.85714 2.15055C8.35714 1.77454 9 2.15055 9 2.75216V15.2804C9 15.882 8.35714 16.1828 7.85714 15.882L3.78571 12.0243H0.714286C0.285714 12.0243 0 11.7235 0 11.2723V6.76022C0 6.30901 0.285714 6.00821 0.714286 6.00821ZM14.5 7.586L12.7322 5.81802C12.3417 5.4275 11.7085 5.4275 11.318 5.81802C10.9275 6.20854 10.9275 6.84171 11.318 7.23223L13.085 9L11.318 10.7678C10.9275 11.1583 10.9275 11.7915 11.318 12.182C11.7085 12.5725 12.3417 12.5725 12.7322 12.182L14.5 10.414L16.2678 12.182C16.6583 12.5725 17.2915 12.5725 17.682 12.182C18.0725 11.7915 18.0725 11.1583 17.682 10.7678L15.914 9L17.682 7.23223C18.0725 6.84171 18.0725 6.20854 17.682 5.81802C17.2915 5.4275 16.6583 5.4275 16.2678 5.81802L14.5 7.586Z" fill="black"/>
</svg>

<svg xmlns="http://www.w3.org/2000/svg" width="18" height="18" fill="currentColor" viewBox="0 0 18 18">
  <path d="M.714 6.008h3.072l4.071-3.857c.5-.376 1.143 0 1.143.601V15.28c0 .602-.643.903-1.143.602l-4.071-3.858H.714c-.428 0-.714-.3-.714-.752V6.76c0-.451.286-.752.714-.752M14.5 7.586l-1.768-1.768a1 1 0 1 0-1.414 1.414L13.085 9l-1.767 1.768a1 1 0 0 0 1.414 1.414l1.768-1.768 1.768 1.768a1 1 0 0 0 1.414-1.414L15.914 9l1.768-1.768a1 1 0 0 0-1.414-1.414z"/>
</svg>
